packages/sources/icons/src/vitamix/twitter-line.svg

<svg width="16" height="16" viewBox="0 0 16 16" fill="none" xmlns="http://www.w3.org/2000/svg">
<path fill-rule="evenodd" clip-rule="evenodd" d="M8.98594 2.59957C7.76588 3.08774 6.95712 4.25945 6.93333 5.57333L6.93399 5.57399C6.89092 5.56807 6.85028 5.56297 6.81074 5.558C6.52529 5.52216 6.29672 5.49346 5.61866 5.21533C4.45866 4.73933 3.31399 3.84199 2.18533 2.52399C-0.146387 8.13769 3.22354 10.3327 4.26833 11.0132C4.30102 11.0345 4.33143 11.0543 4.35933 11.0727C3.27266 11.868 1.39266 12.07 0.929993 12.106C1.83799 13.054 5.00599 13.768 7.18466 13.3333C10.362 12.6993 13.4933 10.222 13.4933 5.12733C13.9693 4.47466 14.0793 3.99999 14.3027 2.90666C13.5408 3.3684 13.1347 3.35452 12.7412 3.34107C12.6689 3.3386 12.597 3.33614 12.5233 3.33666C11.5998 2.40183 10.206 2.1114 8.98594 2.59957ZM8.26664 5.598C8.28591 4.54408 9.14587 3.69983 10.2 3.7C11.4853 3.7 12.16 4.80867 12.16 5.12734C12.16 9.03134 10.0686 11.398 6.92331 12.026C6.42598 12.1247 5.82664 12.1527 5.19531 12.1133L6.25664 11.338C6.36391 11.2599 6.42545 11.1336 6.42091 11.001C6.41637 10.8684 6.34634 10.7466 6.23398 10.676L5.06931 9.944C3.19398 8.76467 2.41531 7.236 2.81398 5.02934C4.07264 6.078 5.38464 6.70867 6.75398 6.89534L7.79464 7.03667C7.90767 7.0519 8.02182 7.01816 8.10841 6.94392C8.19499 6.86969 8.24577 6.76203 8.24798 6.648L8.26664 5.598Z" fill="#001018"/>
</svg>

<svg width="16" height="16" fill="none" xmlns="http://www.w3.org/2000/svg"><path fill-rule="evenodd" clip-rule="evenodd" d="M8.986 2.6a3.267 3.267 0 0 0-2.053 2.973l.001.001-.123-.016c-.286-.036-.514-.065-1.192-.343-1.16-.476-2.305-1.373-3.434-2.691-2.331 5.614 1.039 7.809 2.083 8.49.033.02.063.04.091.059-1.086.795-2.966.997-3.429 1.033.908.948 4.076 1.662 6.255 1.227 3.177-.634 6.308-3.111 6.308-8.206.476-.652.586-1.127.81-2.22-.762.461-1.168.448-1.562.434-.072-.002-.144-.005-.218-.004A3.267 3.267 0 0 0 8.986 2.6zm-.72 2.998A1.933 1.933 0 0 1 10.2 3.7c1.285 0 1.96 1.109 1.96 1.427 0 3.904-2.091 6.271-5.237 6.899-.497.099-1.096.127-1.728.087l1.062-.775a.4.4 0 0 0-.023-.662l-1.165-.732c-1.875-1.18-2.654-2.708-2.255-4.915 1.259 1.049 2.57 1.68 3.94 1.866l1.04.142a.4.4 0 0 0 .454-.389l.019-1.05z" fill="#001018"/></svg>
